custom_files/中继器背景框_u43.svg

<svg xmlns:xlink="http://www.w3.org/1999/xlink" width="213" height="154" xmlns="http://www.w3.org/2000/svg"><defs><filter x="-211" y="235" width="213" height="154" filterUnits="userSpaceOnUse" id="b"><feOffset dx="1" dy="1" in="SourceAlpha" result="shadowOffsetInner"/><feGaussianBlur stdDeviation=".5" in="shadowOffsetInner" result="shadowGaussian"/><feComposite in2="shadowGaussian" operator="atop" in="SourceAlpha" result="shadowComposite"/><feColorMatrix values="0 0 0 0 0 0 0 0 0 0 0 0 0 0 0 0 0 0 0.34901960784313724 0" in="shadowComposite"/></filter><path d="M-210 265a29 29 0 0 1 29-29h151a29 29 0 0 1 29 29v92a29 29 0 0 1-29 29h-151a29 29 0 0 1-29-29v-92z" fill="#fff" id="a"/></defs><g transform="translate(211 -235)"><use xlink:href="#a" filter="url(#b)"/><use xlink:href="#a"/></g></svg>

﻿<?xml version="1.0" encoding="utf-8"?>
<svg version="1.1" xmlns:xlink="http://www.w3.org/1999/xlink" width="213px" height="154px" xmlns="http://www.w3.org/2000/svg">
  <defs>
    <filter x="-211px" y="235px" width="213px" height="154px" filterUnits="userSpaceOnUse" id="filter23">
      <feOffset dx="1" dy="1" in="SourceAlpha" result="shadowOffsetInner" />
      <feGaussianBlur stdDeviation="0.5" in="shadowOffsetInner" result="shadowGaussian" />
      <feComposite in2="shadowGaussian" operator="atop" in="SourceAlpha" result="shadowComposite" />
      <feColorMatrix type="matrix" values="0 0 0 0 0  0 0 0 0 0  0 0 0 0 0  0 0 0 0.34901960784313724 0  " in="shadowComposite" />
    </filter>
    <g id="widget24">
      <path d="M -210 265  A 29 29 0 0 1 -181 236 L -30 236  A 29 29 0 0 1 -1 265 L -1 357  A 29 29 0 0 1 -30 386 L -181 386  A 29 29 0 0 1 -210 357 L -210 265  Z " fill-rule="nonzero" fill="#ffffff" stroke="none" />
    </g>
  </defs>
  <g transform="matrix(1 0 0 1 211 -235 )">
    <use xlink:href="#widget24" filter="url(#filter23)" />
    <use xlink:href="#widget24" />
  </g>
</svg>
